assets/img/icons/duotone-icons/Devices/LTE#2.svg

<?xml version="1.0" encoding="UTF-8"?>
<svg width="24px" height="24px" viewBox="0 0 24 24" version="1.1" xmlns="http://www.w3.org/2000/svg" xmlns:xlink="http://www.w3.org/1999/xlink">
    <!-- Generator: Sketch 52.2 (67145) - http://www.bohemiancoding.com/sketch -->
    <title>Stockholm-icons / Devices / LTE#2</title>
    <desc>Created with Sketch.</desc>
    <g id="Stockholm-icons-/-Devices-/-LTE#2" stroke="none" stroke-width="1" fill="none" fill-rule="evenodd">
        <rect id="bound" x="0" y="0" width="24" height="24"></rect>
        <path d="M16.4508979,17.4029496 L15.1784978,15.8599014 C16.324501,14.9149052 17,13.5137472 17,12 C17,10.4912085 16.3289582,9.09418404 15.1893841,8.14910121 L16.466112,6.60963188 C18.0590936,7.93073905 19,9.88958759 19,12 C19,14.1173586 18.0528606,16.0819686 16.4508979,17.4029496 Z M19.0211112,20.4681628 L17.7438102,18.929169 C19.7927036,17.2286725 21,14.7140097 21,12 C21,9.28974232 19.7960666,6.77820732 17.7520315,5.07766256 L19.031149,3.54017812 C21.5271817,5.61676443 23,8.68922234 23,12 C23,15.3153667 21.523074,18.3916375 19.0211112,20.4681628 Z M7.54910207,17.4029496 C5.94713944,16.0819686 5,14.1173586 5,12 C5,9.88958759 5.94090645,7.93073905 7.53388797,6.60963188 L8.81061588,8.14910121 C7.67104182,9.09418404 7,10.4912085 7,12 C7,13.5137472 7.67549895,14.9149052 8.82150222,15.8599014 L7.54910207,17.4029496 Z M4.9788888,20.4681628 C2.47692603,18.3916375 1,15.3153667 1,12 C1,8.68922234 2.47281829,5.61676443 4.96885102,3.54017812 L6.24796852,5.07766256 C4.20393339,6.77820732 3,9.28974232 3,12 C3,14.7140097 4.20729644,17.2286725 6.25618985,18.929169 L4.9788888,20.4681628 Z" id="Combined-Shape" fill="#335EEA" opacity="0.3"></path>
        <path d="M11,14.2919782 C10.1170476,13.9061998 9.5,13.0251595 9.5,12 C9.5,10.6192881 10.6192881,9.5 12,9.5 C13.3807119,9.5 14.5,10.6192881 14.5,12 C14.5,13.0251595 13.8829524,13.9061998 13,14.2919782 L13,20 C13,20.5522847 12.5522847,21 12,21 C11.4477153,21 11,20.5522847 11,20 L11,14.2919782 Z" id="Combined-Shape" fill="#335EEA"></path>
    </g>
</svg>

<svg width="24" height="24" viewBox="0 0 24 24" xmlns="http://www.w3.org/2000/svg"><g fill="none" fill-rule="evenodd"><path d="M0 0h24v24H0z"/><path d="M16.45 17.403l-1.272-1.543A4.987 4.987 0 0017 12a4.987 4.987 0 00-1.81-3.85l1.276-1.54A6.986 6.986 0 0119 12a6.987 6.987 0 01-2.55 5.403zm2.571 3.065l-1.277-1.539A8.978 8.978 0 0021 12a8.978 8.978 0 00-3.248-6.922l1.28-1.538A10.977 10.977 0 0123 12c0 3.315-1.477 6.392-3.979 8.468zM7.55 17.403A6.987 6.987 0 015 12c0-2.11.94-4.07 2.534-5.39L8.81 8.15A4.987 4.987 0 007 12c0 1.514.675 2.915 1.822 3.86l-1.273 1.543zm-2.57 3.065A10.977 10.977 0 011 12c0-3.31 1.473-6.383 3.969-8.46l1.279 1.538A8.978 8.978 0 003 12a8.978 8.978 0 003.256 6.93L4.98 20.467z" fill="#335EEA" opacity=".3"/><path d="M11 14.292a2.5 2.5 0 112 0V20a1 1 0 01-2 0v-5.708z" fill="#335EEA"/></g></svg>
